icon-themes/sifr_svg/cmd/lc_basicshapes.parallelogram.svg

<svg viewBox="0 0 24 24" xmlns="http://www.w3.org/2000/svg"><g fill="#555753"><path d="m6 4-2 16h14l2-16z" opacity=".35"/><path d="m5 2-3 20h17l3-20zm2 2h12.6l-2.6 16h-12.6z"/></g></svg>

<svg viewBox="0 0 24 24" xmlns="http://www.w3.org/2000/svg">
  <path
     style="opacity:0.35;fill:#555753"
     d="M 6,4 4,20 H 18 L 20,4 Z"
     />
  <path
     style="fill:#555753"
     d="M 5,2 2,22 H 19 L 22,2 Z M 7,4 H 19.6 L 17,20 H 4.4 Z"
     />
</svg>
